X:1
T:Title
%%score ( 1 2 ) { 3 | 4 }
L:1/8
Q:1/4=93
M:6/8
K:G
V:1 treble nm="Grand Piano, Soprano"
V:2 treble 
V:3 treble nm="Choir Pad, Not Yet"
V:4 bass 
V:1
 [GB] [GB]2 [GB]/[GB]/GA | [GB] [FA]2- [FA] G2 | G [EG]2 [EG]/[EG]/[EG][^DF] | %3
w: By~Robert~Lowry * * * * *|||
 [EG] [FA]2- [FA]2- [FA]/ z/ | [FA]/[FA]<[FA][FA]/ [FA][FA][GB] | [Ac] [Bd]2- [Bd] [GB]2 | %6
w: |||
 [DG]/[DG]/ [DF]2 [EG] [DF]2 | [^CE] D2- D2- D/ z/ | D [Dc]2 [DB] [DA]2 | %9
w: |||
 D/D/[CA][B,G] [DA][DB][DG] | z3 z .A2 | [CE] [B,D]2- [B,D]2- [B,D]/ z/ | %12
w: |||
 [DG]/[DA]<[GB][GB]/ [GB][DG][=FA] | [=FB] [Fd]2- [Fd] [Ec]2 | [EA]/[EA]<[DG][DF]/ [DB] [DA]2 | %15
w: |||
 [DG] [DG]2- [DG]3- | [DG]3 z3 |] %17
w: ||
V:2
 x6 | x6 | x6 | x6 | x6 | x6 | x6 | x6 | x6 | x6 | [DG] [EG]2 [EG]/[EG]/E-[EG] | x6 | x6 | x6 | %14
 x6 | x6 | x6 |] %17
V:3
 D D2 D/D/B,C | D D2 C[K:bass] B,2 | B, B,2 B,/B,/ B,2 | B,[K:treble] D2- D2- D/ z/ | %4
 D/D<DD/ D D2 | D D2- D D2 | B,/B,/ A,2 A, A,2 | G, F,2- F,2- F,/ z/ | F, A,2 G, F,2 | %9
 F,/F,/F,G, F,G,B, | B, B,2 B,/B,/ C2 | G, G,2- G,2- G,/ z/ | B,/[K:treble]C<DD/ DB,D | %13
 G, G,2- G,2- G,/ z/ | C/C<B,A,/ G, C2 | B, B,2- B,3- | B,3 z3 |] %17
V:4
 G, G,2 G,/G,/ G,2 | G, D,2- D,/ z/ G,,2 | G,, E,2 E,/E,/E,B,, | E, D,2- D,2- D,/ z/ | %4
 D,/D,<D,D,/ D,C,B,, | A,, G,,2- G,, G,,2 | G,,/G,,/ A,,2 A,, A,,2 | A,, D,2- D,2- D,/ z/ | %8
 D, D,2 D, D,2 | D,/D,/ D,2 .D,2 G, | G, E,2 E,/E,/ C,2 | C, G,,2- G,,2- G,,/ z/ | %12
 G,/G,<G,G,/ G,G,G, | z C,2- C,2- C,/ z/ | C,/C,<D,D,/ D, D,2 | G,, G,,2- G,,3- | G,,3 z3 |] %17

